src/media/images/11st-logo.svg

<svg fill="none" height="72" viewBox="0 0 72 72" width="72" xmlns="http://www.w3.org/2000/svg"><path clip-rule="evenodd" d="m0 10c0-5.52285 4.47715-10 10-10h52c5.5228 0 10 4.47715 10 10v52c0 5.5228-4.4772 10-10 10h-52c-5.52285 0-10-4.4772-10-10z" fill="#111827" fill-rule="evenodd"/><g fill="#f3f4f6"><path d="m6.98979 48.0904v-2.9649l4.16791-.5083v-16.7056h-4.21874v-2.8295l9.14914-1.6603v21.1954l4.1679.5083v2.9649z"/><path d="m22.3399 48.0904v-2.9649l4.168-.5083v-16.7056h-4.2188v-2.8295l9.1491-1.6603v21.1954l4.1679.5083v2.9649z"/><path d="m45.5176 48.4462c-1.3667 0-2.643-.1299-3.829-.3896-1.1747-.2598-2.3042-.6326-3.3886-1.1183l-.0508-5.1845h3.4394l.6608 2.6431c.384.192.8019.3445 1.2537.4575.4631.1129.9883.1694 1.5757.1694 1.1069 0 1.8863-.1807 2.3381-.5422.4518-.3614.6777-.8132.6777-1.3554 0-.5083-.2428-.9544-.7285-1.3385-.4857-.3953-1.4402-.7398-2.8634-1.0335-2.1799-.4518-3.7838-1.1521-4.8117-2.1009-1.0166-.9488-1.5249-2.163-1.5249-3.6427 0-1.0053.2542-1.9315.7625-2.7786.5195-.8471 1.3046-1.5192 2.355-2.0162 1.0618-.5083 2.4172-.7624 4.0663-.7624 1.378 0 2.6374.1355 3.7782.4066 1.1521.2598 2.1179.6043 2.8972 1.0335l.0509 5.0151h-3.4225l-.5252-2.4059c-.6551-.4518-1.4797-.6777-2.4737-.6777-.8584 0-1.5248.1807-1.9992.5422-.4631.3501-.6947.7963-.6947 1.3384 0 .4744.2034.9037.61 1.2877.4179.3727 1.3272.7172 2.7278 1.0335 2.2703.5196 3.925 1.2142 4.9642 2.084 1.0392.8584 1.5587 2.067 1.5587 3.6257 0 1.7056-.6212 3.0836-1.8637 4.1341-1.2311 1.0504-3.0779 1.5756-5.5403 1.5756z"/><path d="m62.3757 48.4462c-1.7056 0-3.0215-.4687-3.9477-1.4062-.9149-.9375-1.3723-2.4228-1.3723-4.456v-9.3524h-2.5245v-3.4732h2.5245v-4.4899h4.9303v4.4899h3.3716v3.4732h-3.3716v9.3355c0 .7116.1469 1.2199.4405 1.5248.305.305.7173.4575 1.2369.4575.271 0 .5647-.0169.881-.0508.3162-.0452.5873-.0904.8132-.1356l.4236 3.575c-.497.1468-1.0448.2654-1.6434.3558-.5987.1016-1.186.1524-1.7621.1524z"/></g></svg>

<svg width="72" height="72" viewBox="0 0 72 72" fill="none" xmlns="http://www.w3.org/2000/svg">
<path fill-rule="evenodd" clip-rule="evenodd" d="M0 10C0 4.47715 4.47715 0 10 0H62C67.5228 0 72 4.47715 72 10V62C72 67.5228 67.5228 72 62 72H10C4.47715 72 0 67.5228 0 62V10Z" fill="#111827"/>
<path d="M6.98979 48.0904V45.1255L11.1577 44.6172V27.9116H6.93896V25.0821L16.0881 23.4218V44.6172L20.256 45.1255V48.0904H6.98979Z" fill="#F3F4F6"/>
<path d="M22.3399 48.0904V45.1255L26.5079 44.6172V27.9116H22.2891V25.0821L31.4382 23.4218V44.6172L35.6061 45.1255V48.0904H22.3399Z" fill="#F3F4F6"/>
<path d="M45.5176 48.4462C44.1509 48.4462 42.8746 48.3163 41.6886 48.0566C40.5139 47.7968 39.3844 47.424 38.3 46.9383L38.2492 41.7538H41.6886L42.3494 44.3969C42.7334 44.5889 43.1513 44.7414 43.6031 44.8544C44.0662 44.9673 44.5914 45.0238 45.1788 45.0238C46.2857 45.0238 47.0651 44.8431 47.5169 44.4816C47.9687 44.1202 48.1946 43.6684 48.1946 43.1262C48.1946 42.6179 47.9518 42.1718 47.4661 41.7877C46.9804 41.3924 46.0259 41.0479 44.6027 40.7542C42.4228 40.3024 40.8189 39.6021 39.791 38.6533C38.7744 37.7045 38.2661 36.4903 38.2661 35.0106C38.2661 34.0053 38.5203 33.0791 39.0286 32.232C39.5481 31.3849 40.3332 30.7128 41.3836 30.2158C42.4454 29.7075 43.8008 29.4534 45.4499 29.4534C46.8279 29.4534 48.0873 29.5889 49.2281 29.86C50.3802 30.1198 51.346 30.4643 52.1253 30.8935L52.1762 35.9086H48.7537L48.2285 33.5027C47.5734 33.0509 46.7488 32.825 45.7548 32.825C44.8964 32.825 44.23 33.0057 43.7556 33.3672C43.2925 33.7173 43.0609 34.1635 43.0609 34.7056C43.0609 35.18 43.2643 35.6093 43.6709 35.9933C44.0888 36.366 44.9981 36.7105 46.3987 37.0268C48.669 37.5464 50.3237 38.241 51.3629 39.1108C52.4021 39.9692 52.9216 41.1778 52.9216 42.7365C52.9216 44.4421 52.3004 45.8201 51.0579 46.8706C49.8268 47.921 47.98 48.4462 45.5176 48.4462Z" fill="#F3F4F6"/>
<path d="M62.3757 48.4462C60.6701 48.4462 59.3542 47.9775 58.428 47.04C57.5131 46.1025 57.0557 44.6172 57.0557 42.584V33.2316H54.5312V29.7584H57.0557V25.2685H61.986V29.7584H65.3576V33.2316H61.986V42.5671C61.986 43.2787 62.1329 43.787 62.4265 44.0919C62.7315 44.3969 63.1438 44.5494 63.6634 44.5494C63.9344 44.5494 64.2281 44.5325 64.5444 44.4986C64.8606 44.4534 65.1317 44.4082 65.3576 44.363L65.7812 47.938C65.2842 48.0848 64.7364 48.2034 64.1378 48.2938C63.5391 48.3954 62.9518 48.4462 62.3757 48.4462Z" fill="#F3F4F6"/>
</svg>
